Newaita-dark/apps/128/orion.svg

<?xml version="1.0" encoding="UTF-8"?>
<svg xmlns="http://www.w3.org/2000/svg" xmlns:xlink="http://www.w3.org/1999/xlink" width="128pt" height="128pt" viewBox="0 0 128 128" version="1.1">
<defs>
<radialGradient id="radial0" gradientUnits="userSpaceOnUse" cx="450.908936" cy="189.579361" fx="450.908936" fy="189.579361" r="21.166656" gradientTransform="matrix(0.000000696681,-0.31253,-0.562554,-0.000000406154,178.092608,254.381318)">
<stop offset="0" style="stop-color:rgb(0%,0%,0%);stop-opacity:0.313725;"/>
<stop offset="0.222222" style="stop-color:rgb(0%,0%,0%);stop-opacity:0.27451;"/>
<stop offset="1" style="stop-color:rgb(0%,0%,0%);stop-opacity:0;"/>
</radialGradient>
<radialGradient id="radial1" gradientUnits="userSpaceOnUse" cx="450.908936" cy="189.579361" fx="450.908936" fy="189.579361" r="21.166656" gradientTransform="matrix(-0.000000696681,0.31253,0.562554,0.000000406154,-51.080475,-30.109928)">
<stop offset="0" style="stop-color:rgb(0%,0%,0%);stop-opacity:0.313725;"/>
<stop offset="0.222222" style="stop-color:rgb(0%,0%,0%);stop-opacity:0.27451;"/>
<stop offset="1" style="stop-color:rgb(0%,0%,0%);stop-opacity:0;"/>
</radialGradient>
<radialGradient id="radial2" gradientUnits="userSpaceOnUse" cx="450.908936" cy="189.579361" fx="450.908936" fy="189.579361" r="21.166656" gradientTransform="matrix(-0.000000696681,-0.31253,0.562554,-0.000000406154,-51.080475,254.381318)">
<stop offset="0" style="stop-color:rgb(0%,0%,0%);stop-opacity:0.313725;"/>
<stop offset="0.222222" style="stop-color:rgb(0%,0%,0%);stop-opacity:0.27451;"/>
<stop offset="1" style="stop-color:rgb(0%,0%,0%);stop-opacity:0;"/>
</radialGradient>
<radialGradient id="radial3" gradientUnits="userSpaceOnUse" cx="450.908936" cy="189.579361" fx="450.908936" fy="189.579361" r="21.166656" gradientTransform="matrix(0.000000696681,0.31253,-0.562554,0.000000406154,178.0926,-30.10993)">
<stop offset="0" style="stop-color:rgb(0%,0%,0%);stop-opacity:0.313725;"/>
<stop offset="0.222222" style="stop-color:rgb(0%,0%,0%);stop-opacity:0.27451;"/>
<stop offset="1" style="stop-color:rgb(0%,0%,0%);stop-opacity:0;"/>
</radialGradient>
<linearGradient id="linear0" gradientUnits="userSpaceOnUse" x1="255.323059" y1="233.5" x2="255.323044" y2="254.666656" gradientTransform="matrix(0.0534402,0,0,0.250024,49.861545,53.755135)">
<stop offset="0" style="stop-color:rgb(0%,0%,0%);stop-opacity:0.27451;"/>
<stop offset="1" style="stop-color:rgb(0%,0%,0%);stop-opacity:0;"/>
</linearGradient>
<linearGradient id="linear1" gradientUnits="userSpaceOnUse" x1="254" y1="-168.666672" x2="254" y2="233.5" >
<stop offset="0" style="stop-color:rgb(58.431373%,45.882353%,80.392157%);stop-opacity:1;"/>
<stop offset="1" style="stop-color:rgb(49.411765%,34.117647%,76.078431%);stop-opacity:1;"/>
</linearGradient>
<linearGradient id="linear2" gradientUnits="userSpaceOnUse" x1="254" y1="212.333328" x2="254" y2="-147.5" gradientTransform="matrix(3.779528,0,0,3.779528,0,812.59845)">
<stop offset="0" style="stop-color:rgb(87.843137%,87.843137%,87.843137%);stop-opacity:1;"/>
<stop offset="1" style="stop-color:rgb(93.333333%,93.333333%,93.333333%);stop-opacity:1;"/>
</linearGradient>
<linearGradient id="linear3" gradientUnits="userSpaceOnUse" x1="317.5" y1="159.416672" x2="317.5" y2="127.666656" >
<stop offset="0" style="stop-color:rgb(87.843137%,87.843137%,87.843137%);stop-opacity:1;"/>
<stop offset="1" style="stop-color:rgb(93.333333%,93.333333%,93.333333%);stop-opacity:1;"/>
</linearGradient>
<linearGradient id="linear4" gradientUnits="userSpaceOnUse" x1="317.5" y1="159.416672" x2="317.5" y2="127.666656" gradientTransform="matrix(1.333334,0,0,1.333334,-45.86134,-137.805664)">
<stop offset="0" style="stop-color:rgb(87.843137%,87.843137%,87.843137%);stop-opacity:1;"/>
<stop offset="1" style="stop-color:rgb(93.333333%,93.333333%,93.333333%);stop-opacity:1;"/>
</linearGradient>
<linearGradient id="linear5" gradientUnits="userSpaceOnUse" x1="317.5" y1="159.416672" x2="317.5" y2="127.666656" gradientTransform="matrix(2.000001,0,0,2.000001,-370.41687,-222.916748)">
<stop offset="0" style="stop-color:rgb(87.843137%,87.843137%,87.843137%);stop-opacity:1;"/>
<stop offset="1" style="stop-color:rgb(93.333333%,93.333333%,93.333333%);stop-opacity:1;"/>
</linearGradient>
<linearGradient id="linear6" gradientUnits="userSpaceOnUse" x1="317.5" y1="159.416672" x2="317.5" y2="127.666656" gradientTransform="matrix(1.166667,0,0,1.166667,-65.264206,-174.73616)">
<stop offset="0" style="stop-color:rgb(87.843137%,87.843137%,87.843137%);stop-opacity:1;"/>
<stop offset="1" style="stop-color:rgb(93.333333%,93.333333%,93.333333%);stop-opacity:1;"/>
</linearGradient>
<linearGradient id="linear7" gradientUnits="userSpaceOnUse" x1="317.500275" y1="159.416718" x2="317.5" y2="127.666656" gradientTransform="matrix(1,0,0,1,-42.333618,-222.250046)">
<stop offset="0" style="stop-color:rgb(87.843137%,87.843137%,87.843137%);stop-opacity:1;"/>
<stop offset="1" style="stop-color:rgb(93.333333%,93.333333%,93.333333%);stop-opacity:1;"/>
</linearGradient>
<linearGradient id="linear8" gradientUnits="userSpaceOnUse" x1="317.5" y1="159.416672" x2="317.5" y2="127.666656" gradientTransform="matrix(1.666668,0,0,1.666667,-335.139404,-296.777863)">
<stop offset="0" style="stop-color:rgb(87.843137%,87.843137%,87.843137%);stop-opacity:1;"/>
<stop offset="1" style="stop-color:rgb(93.333333%,93.333333%,93.333333%);stop-opacity:1;"/>
</linearGradient>
<linearGradient id="linear9" gradientUnits="userSpaceOnUse" x1="317.5" y1="159.416672" x2="317.5" y2="127.666656" gradientTransform="matrix(1.333334,0,0,1.333334,-278.694672,-180.139008)">
<stop offset="0" style="stop-color:rgb(87.843137%,87.843137%,87.843137%);stop-opacity:1;"/>
<stop offset="1" style="stop-color:rgb(93.333333%,93.333333%,93.333333%);stop-opacity:1;"/>
</linearGradient>
</defs>
<g id="surface1">
<path style=" stroke:none;fill-rule:nonzero;fill:url(#radial0);" d="M 72.765625 112.136719 L 83.351562 112.136719 L 83.351562 106.84375 L 72.765625 106.84375 Z M 72.765625 112.136719 "/>
<path style=" stroke:none;fill-rule:nonzero;fill:url(#radial1);" d="M 54.246094 112.136719 L 43.660156 112.136719 L 43.660156 117.429688 L 54.246094 117.429688 Z M 54.246094 112.136719 "/>
<path style=" stroke:none;fill-rule:nonzero;fill:url(#radial2);" d="M 54.246094 112.136719 L 43.660156 112.136719 L 43.660156 106.84375 L 54.246094 106.84375 Z M 54.246094 112.136719 "/>
<path style=" stroke:none;fill-rule:nonzero;fill:url(#radial3);" d="M 72.765625 112.136719 L 83.351562 112.136719 L 83.351562 117.429688 L 72.765625 117.429688 Z M 72.765625 112.136719 "/>
<path style=" stroke:none;fill-rule:nonzero;fill:url(#linear0);" d="M 54.246094 110.8125 L 72.765625 110.8125 L 72.765625 117.429688 L 54.246094 117.429688 Z M 54.246094 110.8125 "/>
<path style="fill-rule:nonzero;fill:url(#linear1);stroke-width:3;stroke-linecap:round;stroke-linejoin:miter;stroke:rgb(20%,20%,20%);stroke-opacity:1;stroke-miterlimit:4;" d="M 254.006994 -168.660675 C 365.058889 -168.660675 455.081542 -78.638022 455.081542 32.413873 C 455.081542 143.465768 365.058889 233.504045 254.006994 233.504045 C 142.939475 233.504045 52.916822 143.465768 52.916822 32.413873 C 52.916822 -78.638022 142.939475 -168.660675 254.006994 -168.660675 Z M 254.006994 -168.660675 " transform="matrix(0.250024,0,0,0.250024,0,53.755133)"/>
<path style=" stroke:none;fill-rule:nonzero;fill:rgb(0%,0%,0%);fill-opacity:0.196078;" d="M 63.507812 112.136719 C 35.652344 112.136719 13.230469 89.710938 13.230469 61.859375 C 13.230469 61.695312 13.230469 61.53125 13.234375 61.367188 C 13.496094 88.992188 35.816406 111.152344 63.507812 111.152344 C 91.195312 111.152344 113.515625 88.992188 113.777344 61.367188 C 113.78125 61.53125 113.78125 61.695312 113.78125 61.859375 C 113.78125 89.710938 91.359375 112.136719 63.507812 112.136719 Z M 63.507812 112.136719 "/>
<path style=" stroke:none;fill-rule:nonzero;fill:rgb(100%,100%,100%);fill-opacity:0.392157;" d="M 63.507812 11.585938 C 35.652344 11.585938 13.230469 34.007812 13.230469 61.859375 C 13.230469 62.023438 13.230469 62.1875 13.234375 62.351562 C 13.496094 34.726562 35.816406 12.570312 63.507812 12.570312 C 91.195312 12.570312 113.515625 34.726562 113.777344 62.351562 C 113.78125 62.1875 113.78125 62.023438 113.78125 61.859375 C 113.78125 34.007812 91.359375 11.585938 63.507812 11.585938 Z M 63.507812 11.585938 "/>
<path style=" stroke:none;fill-rule:nonzero;fill:rgb(12.941177%,12.941177%,12.941177%);fill-opacity:1;" d="M 63.507812 11.210938 C 35.453125 11.210938 12.855469 33.804688 12.855469 61.859375 C 12.855469 89.914062 35.453125 112.511719 63.507812 112.511719 C 91.558594 112.511719 114.15625 89.914062 114.15625 61.859375 C 114.15625 33.804688 91.558594 11.210938 63.507812 11.210938 Z M 63.507812 11.960938 C 91.15625 11.960938 113.40625 34.207031 113.40625 61.859375 C 113.40625 89.511719 91.15625 111.761719 63.507812 111.761719 C 35.855469 111.761719 13.605469 89.511719 13.605469 61.859375 C 13.605469 34.207031 35.855469 11.960938 63.507812 11.960938 Z M 63.507812 11.960938 "/>
<path style="fill-rule:nonzero;fill:url(#linear2);stroke-width:11.338583;stroke-linecap:round;stroke-linejoin:miter;stroke:rgb(12.941177%,12.941177%,12.941177%);stroke-opacity:1;stroke-miterlimit:4;" d="M 960.026483 255.093763 C 583.290786 255.093763 280.012645 558.371904 280.012645 935.107601 C 280.012645 1311.843298 583.290786 1615.121439 960.026483 1615.121439 C 1336.70313 1615.121439 1639.981271 1311.843298 1639.981271 935.107601 C 1639.981271 558.371904 1336.70313 255.093763 960.026483 255.093763 Z M 960.026483 335.105812 C 1292.416018 335.105812 1560.028272 602.718066 1560.028272 935.107601 C 1560.028272 1267.497137 1292.416018 1535.109391 960.026483 1535.109391 C 627.577898 1535.109391 360.024693 1267.497137 360.024693 935.107601 C 360.024693 602.718066 627.577898 335.105812 960.026483 335.105812 Z M 960.026483 335.105812 " transform="matrix(0.0661521,0,0,0.0661521,0,0)"/>
<path style="fill-rule:nonzero;fill:url(#linear3);stroke-width:3;stroke-linecap:square;stroke-linejoin:round;stroke:rgb(12.941177%,12.941177%,12.941177%);stroke-opacity:1;stroke-miterlimit:4;" d="M 312.204561 127.670402 C 320.969349 127.670402 328.078045 134.779098 328.078045 143.543886 C 328.078045 152.308674 320.969349 159.41737 312.204561 159.41737 C 303.439773 159.41737 296.331077 152.308674 296.331077 143.543886 C 296.331077 134.779098 303.439773 127.670402 312.204561 127.670402 Z M 312.204561 127.670402 " transform="matrix(0.250024,0,0,0.250024,0,53.755133)"/>
<path style="fill-rule:nonzero;fill:url(#linear4);stroke-width:3;stroke-linecap:square;stroke-linejoin:round;stroke:rgb(12.941177%,12.941177%,12.941177%);stroke-opacity:1;stroke-miterlimit:4;" d="M 370.417752 32.413873 C 382.104136 32.413873 391.587605 41.897343 391.587605 53.583727 C 391.587605 65.270111 382.104136 74.75358 370.417752 74.75358 C 358.731368 74.75358 349.247898 65.270111 349.247898 53.583727 C 349.247898 41.897343 358.731368 32.413873 370.417752 32.413873 Z M 370.417752 32.413873 " transform="matrix(0.250024,0,0,0.250024,0,53.755133)"/>
<path style="fill-rule:nonzero;fill:url(#linear5);stroke-width:3;stroke-linecap:square;stroke-linejoin:round;stroke:rgb(12.941177%,12.941177%,12.941177%);stroke-opacity:1;stroke-miterlimit:4;" d="M 254.006994 32.413873 C 271.53657 32.413873 285.753962 46.631265 285.753962 64.160841 C 285.753962 81.706041 271.53657 95.923433 254.006994 95.923433 C 236.461794 95.923433 222.244402 81.706041 222.244402 64.160841 C 222.244402 46.631265 236.461794 32.413873 254.006994 32.413873 Z M 254.006994 32.413873 " transform="matrix(0.250024,0,0,0.250024,0,53.755133)"/>
<path style="fill-rule:nonzero;fill:url(#linear6);stroke-width:3;stroke-linecap:square;stroke-linejoin:round;stroke:rgb(12.941177%,12.941177%,12.941177%);stroke-opacity:1;stroke-miterlimit:4;" d="M 298.97145 -25.799318 C 309.204847 -25.799318 317.50093 -17.503235 317.50093 -7.269837 C 317.50093 2.963561 309.204847 11.24402 298.97145 11.24402 C 288.753675 11.24402 280.457593 2.963561 280.457593 -7.269837 C 280.457593 -17.503235 288.753675 -25.799318 298.97145 -25.799318 Z M 298.97145 -25.799318 " transform="matrix(0.250024,0,0,0.250024,0,53.755133)"/>
<path style="fill-rule:nonzero;fill:url(#linear7);stroke-width:3;stroke-linecap:square;stroke-linejoin:round;stroke:rgb(12.941177%,12.941177%,12.941177%);stroke-opacity:1;stroke-miterlimit:4;" d="M 269.880478 -94.589624 C 278.645266 -94.589624 285.753962 -87.480927 285.753962 -78.716139 C 285.753962 -69.935728 278.645266 -62.827032 269.880478 -62.827032 C 261.100066 -62.827032 254.006994 -69.935728 254.006994 -78.716139 C 254.006994 -87.480927 261.100066 -94.589624 269.880478 -94.589624 Z M 269.880478 -94.589624 " transform="matrix(0.250024,0,0,0.250024,0,53.755133)"/>
<path style="fill-rule:nonzero;fill:url(#linear8);stroke-width:3;stroke-linecap:square;stroke-linejoin:round;stroke:rgb(12.941177%,12.941177%,12.941177%);stroke-opacity:1;stroke-miterlimit:4;" d="M 185.201064 -83.996885 C 199.824668 -83.996885 211.667287 -72.154266 211.667287 -57.546286 C 211.667287 -42.922683 199.824668 -31.080063 185.201064 -31.080063 C 170.593084 -31.080063 158.750465 -42.922683 158.750465 -57.546286 C 158.750465 -72.154266 170.593084 -83.996885 185.201064 -83.996885 Z M 185.201064 -83.996885 " transform="matrix(0.250024,0,0,0.250024,0,53.755133)"/>
<path style="fill-rule:nonzero;fill:url(#linear9);stroke-width:3;stroke-linecap:square;stroke-linejoin:round;stroke:rgb(12.941177%,12.941177%,12.941177%);stroke-opacity:1;stroke-miterlimit:4;" d="M 137.580612 -9.91021 C 149.266996 -9.91021 158.750465 -0.442364 158.750465 11.24402 C 158.750465 22.946027 149.266996 32.413873 137.580612 32.413873 C 125.894228 32.413873 116.410758 22.946027 116.410758 11.24402 C 116.410758 -0.442364 125.894228 -9.91021 137.580612 -9.91021 Z M 137.580612 -9.91021 " transform="matrix(0.250024,0,0,0.250024,0,53.755133)"/>
</g>
</svg>

<svg xmlns="http://www.w3.org/2000/svg" width="128pt" height="128pt" viewBox="0 0 128 128"><defs><radialGradient id="a" gradientUnits="userSpaceOnUse" cx="450.909" cy="189.579" fx="450.909" fy="189.579" r="21.167" gradientTransform="matrix(0 -.31253 -.56255 0 178.093 254.381)"><stop offset="0" stop-opacity=".314"/><stop offset=".222" stop-opacity=".275"/><stop offset="1" stop-opacity="0"/></radialGradient><radialGradient id="b" gradientUnits="userSpaceOnUse" cx="450.909" cy="189.579" fx="450.909" fy="189.579" r="21.167" gradientTransform="matrix(0 .31253 .56255 0 -51.08 -30.11)"><stop offset="0" stop-opacity=".314"/><stop offset=".222" stop-opacity=".275"/><stop offset="1" stop-opacity="0"/></radialGradient><radialGradient id="c" gradientUnits="userSpaceOnUse" cx="450.909" cy="189.579" fx="450.909" fy="189.579" r="21.167" gradientTransform="matrix(0 -.31253 .56255 0 -51.08 254.381)"><stop offset="0" stop-opacity=".314"/><stop offset=".222" stop-opacity=".275"/><stop offset="1" stop-opacity="0"/></radialGradient><radialGradient id="d" gradientUnits="userSpaceOnUse" cx="450.909" cy="189.579" fx="450.909" fy="189.579" r="21.167" gradientTransform="matrix(0 .31253 -.56255 0 178.093 -30.11)"><stop offset="0" stop-opacity=".314"/><stop offset=".222" stop-opacity=".275"/><stop offset="1" stop-opacity="0"/></radialGradient><linearGradient id="e" gradientUnits="userSpaceOnUse" x1="255.323" y1="233.5" x2="255.323" y2="254.667" gradientTransform="matrix(.05344 0 0 .25002 49.862 53.755)"><stop offset="0" stop-opacity=".275"/><stop offset="1" stop-opacity="0"/></linearGradient><linearGradient id="f" gradientUnits="userSpaceOnUse" x1="254" y1="-168.667" x2="254" y2="233.5"><stop offset="0" stop-color="#9575cd"/><stop offset="1" stop-color="#7e57c2"/></linearGradient><linearGradient id="g" gradientUnits="userSpaceOnUse" x1="254" y1="212.333" x2="254" y2="-147.5" gradientTransform="matrix(3.77953 0 0 3.77953 0 812.598)"><stop offset="0" stop-color="#e0e0e0"/><stop offset="1" stop-color="#eee"/></linearGradient><linearGradient id="h" gradientUnits="userSpaceOnUse" x1="317.5" y1="159.417" x2="317.5" y2="127.667"><stop offset="0" stop-color="#e0e0e0"/><stop offset="1" stop-color="#eee"/></linearGradient><linearGradient id="i" gradientUnits="userSpaceOnUse" x1="317.5" y1="159.417" x2="317.5" y2="127.667" gradientTransform="matrix(1.33333 0 0 1.33333 -45.861 -137.806)"><stop offset="0" stop-color="#e0e0e0"/><stop offset="1" stop-color="#eee"/></linearGradient><linearGradient id="j" gradientUnits="userSpaceOnUse" x1="317.5" y1="159.417" x2="317.5" y2="127.667" gradientTransform="matrix(2 0 0 2 -370.417 -222.917)"><stop offset="0" stop-color="#e0e0e0"/><stop offset="1" stop-color="#eee"/></linearGradient><linearGradient id="k" gradientUnits="userSpaceOnUse" x1="317.5" y1="159.417" x2="317.5" y2="127.667" gradientTransform="matrix(1.16667 0 0 1.16667 -65.264 -174.736)"><stop offset="0" stop-color="#e0e0e0"/><stop offset="1" stop-color="#eee"/></linearGradient><linearGradient id="l" gradientUnits="userSpaceOnUse" x1="317.5" y1="159.417" x2="317.5" y2="127.667" gradientTransform="translate(-42.334 -222.25)"><stop offset="0" stop-color="#e0e0e0"/><stop offset="1" stop-color="#eee"/></linearGradient><linearGradient id="m" gradientUnits="userSpaceOnUse" x1="317.5" y1="159.417" x2="317.5" y2="127.667" gradientTransform="matrix(1.66667 0 0 1.66667 -335.14 -296.778)"><stop offset="0" stop-color="#e0e0e0"/><stop offset="1" stop-color="#eee"/></linearGradient><linearGradient id="n" gradientUnits="userSpaceOnUse" x1="317.5" y1="159.417" x2="317.5" y2="127.667" gradientTransform="matrix(1.33333 0 0 1.33333 -278.695 -180.139)"><stop offset="0" stop-color="#e0e0e0"/><stop offset="1" stop-color="#eee"/></linearGradient></defs><path d="M72.766 112.137h10.586v-5.293H72.766zm0 0" fill="url(#a)"/><path d="M54.246 112.137H43.66v5.293h10.586zm0 0" fill="url(#b)"/><path d="M54.246 112.137H43.66v-5.293h10.586zm0 0" fill="url(#c)"/><path d="M72.766 112.137h10.586v5.293H72.766zm0 0" fill="url(#d)"/><path d="M54.246 110.813h18.52v6.617h-18.52zm0 0" fill="url(#e)"/><path d="M254.007-168.66c111.052 0 201.075 90.022 201.075 201.074s-90.023 201.09-201.075 201.09c-111.068 0-201.09-90.038-201.09-201.09s90.022-201.075 201.09-201.075zm0 0" transform="matrix(.25002 0 0 .25002 0 53.755)" fill="url(#f)" stroke-width="3" stroke-linecap="round" stroke="#333"/><path d="M63.508 112.137c-27.856 0-50.278-22.426-50.278-50.278 0-.164 0-.328.004-.492.262 27.625 22.582 49.785 50.274 49.785 27.687 0 50.008-22.16 50.27-49.785.003.164.003.328.003.492 0 27.852-22.422 50.278-50.273 50.278zm0 0" fill-opacity=".196"/><path d="M63.508 11.586c-27.856 0-50.278 22.422-50.278 50.273 0 .164 0 .328.004.493.262-27.625 22.582-49.782 50.274-49.782 27.687 0 50.008 22.157 50.27 49.782.003-.164.003-.329.003-.493 0-27.851-22.422-50.273-50.273-50.273zm0 0" fill="#fff" fill-opacity=".392"/><path d="M63.508 11.21c-28.055 0-50.653 22.595-50.653 50.65 0 28.054 22.598 50.652 50.653 50.652 28.05 0 50.648-22.598 50.648-50.653 0-28.054-22.597-50.648-50.648-50.648zm0 .75c27.648 0 49.898 22.247 49.898 49.9 0 27.652-22.25 49.902-49.898 49.902-27.653 0-49.903-22.25-49.903-49.903 0-27.652 22.25-49.898 49.903-49.898zm0 0" fill="#212121"/><path d="M960.026 255.094c-376.735 0-680.013 303.278-680.013 680.014 0 376.735 303.278 680.013 680.013 680.013 376.677 0 679.955-303.278 679.955-680.013 0-376.736-303.278-680.014-679.955-680.014zm0 80.012c332.39 0 600.002 267.612 600.002 600.002 0 332.39-267.612 600.001-600.002 600.001-332.448 0-600.001-267.612-600.001-600.001 0-332.39 267.553-600.002 600.001-600.002zm0 0" transform="scale(.06615)" fill="url(#g)" stroke-width="11.339" stroke-linecap="round" stroke="#212121"/><path d="M312.205 127.67c8.764 0 15.873 7.11 15.873 15.874 0 8.765-7.109 15.873-15.873 15.873-8.765 0-15.874-7.108-15.874-15.873s7.109-15.874 15.874-15.874zm0 0" transform="matrix(.25002 0 0 .25002 0 53.755)" fill="url(#h)" stroke-width="3" stroke-linecap="square" stroke-linejoin="round" stroke="#212121"/><path d="M370.418 32.414c11.686 0 21.17 9.483 21.17 21.17 0 11.686-9.484 21.17-21.17 21.17-11.687 0-21.17-9.484-21.17-21.17 0-11.687 9.483-21.17 21.17-21.17zm0 0" transform="matrix(.25002 0 0 .25002 0 53.755)" fill="url(#i)" stroke-width="3" stroke-linecap="square" stroke-linejoin="round" stroke="#212121"/><path d="M254.007 32.414c17.53 0 31.747 14.217 31.747 31.747 0 17.545-14.217 31.762-31.747 31.762-17.545 0-31.763-14.217-31.763-31.762 0-17.53 14.218-31.747 31.763-31.747zm0 0" transform="matrix(.25002 0 0 .25002 0 53.755)" fill="url(#j)" stroke-width="3" stroke-linecap="square" stroke-linejoin="round" stroke="#212121"/><path d="M298.971-25.8c10.234 0 18.53 8.297 18.53 18.53 0 10.234-8.296 18.514-18.53 18.514-10.217 0-18.513-8.28-18.513-18.514 0-10.233 8.296-18.53 18.513-18.53zm0 0" transform="matrix(.25002 0 0 .25002 0 53.755)" fill="url(#k)" stroke-width="3" stroke-linecap="square" stroke-linejoin="round" stroke="#212121"/><path d="M269.88-94.59c8.765 0 15.874 7.11 15.874 15.874 0 8.78-7.109 15.889-15.874 15.889-8.78 0-15.873-7.109-15.873-15.89 0-8.764 7.093-15.873 15.873-15.873zm0 0" transform="matrix(.25002 0 0 .25002 0 53.755)" fill="url(#l)" stroke-width="3" stroke-linecap="square" stroke-linejoin="round" stroke="#212121"/><path d="M185.201-83.997c14.624 0 26.466 11.843 26.466 26.45 0 14.624-11.842 26.467-26.466 26.467-14.608 0-26.45-11.843-26.45-26.466 0-14.608 11.842-26.45 26.45-26.45zm0 0" transform="matrix(.25002 0 0 .25002 0 53.755)" fill="url(#m)" stroke-width="3" stroke-linecap="square" stroke-linejoin="round" stroke="#212121"/><path d="M137.58-9.91c11.687 0 21.17 9.468 21.17 21.154 0 11.702-9.483 21.17-21.17 21.17-11.686 0-21.17-9.468-21.17-21.17 0-11.686 9.484-21.154 21.17-21.154zm0 0" transform="matrix(.25002 0 0 .25002 0 53.755)" fill="url(#n)" stroke-width="3" stroke-linecap="square" stroke-linejoin="round" stroke="#212121"/></svg>
